app/src/assets/coin.svg

<svg width="47" height="47" viewBox="0 0 47 47" fill="none" xmlns="http://www.w3.org/2000/svg">
<circle cx="23.5" cy="23.8075" r="23.1483" fill="#FDEAEC"/>
<ellipse cx="23.5001" cy="18.9034" rx="11.5575" ry="5.05639" fill="#FF5379"/>
<path fill-rule="evenodd" clip-rule="evenodd" d="M34.579 22.5154C33.1582 24.6041 28.7357 26.1271 23.5001 26.1271C18.2645 26.1271 13.842 24.6041 12.4212 22.5154C12.1098 22.9731 11.9426 23.458 11.9426 23.96C11.9426 26.7526 17.1171 29.0164 23.5001 29.0164C29.8831 29.0164 35.0576 26.7526 35.0576 23.96C35.0576 23.458 34.8904 22.9731 34.579 22.5154Z" fill="#FFAABD" fill-opacity="0.79"/>
<path fill-rule="evenodd" clip-rule="evenodd" d="M34.579 27.2675C33.1582 29.3561 28.7357 30.8792 23.5001 30.8792C18.2645 30.8792 13.842 29.3561 12.4212 27.2675C12.1098 27.7252 11.9426 28.2101 11.9426 28.7121C11.9426 31.5046 17.1171 33.7685 23.5001 33.7685C29.8831 33.7685 35.0576 31.5046 35.0576 28.7121C35.0576 28.2101 34.8904 27.7252 34.579 27.2675Z" fill="#FFAABD" fill-opacity="0.79"/>
</svg>

<svg width="47" height="47" fill="none" xmlns="http://www.w3.org/2000/svg"><circle cx="23.5" cy="23.808" r="23.148" fill="#FDEAEC"/><ellipse cx="23.5" cy="18.903" rx="11.557" ry="5.056" fill="#FF5379"/><path fill-rule="evenodd" clip-rule="evenodd" d="M34.579 22.515c-1.42 2.09-5.843 3.612-11.079 3.612-5.235 0-9.658-1.523-11.079-3.612-.311.458-.478.943-.478 1.445 0 2.793 5.174 5.056 11.557 5.056s11.558-2.263 11.558-5.056c0-.502-.168-.987-.479-1.445z" fill="#FFAABD" fill-opacity=".79"/><path fill-rule="evenodd" clip-rule="evenodd" d="M34.579 27.267c-1.42 2.09-5.843 3.612-11.079 3.612-5.235 0-9.658-1.523-11.079-3.612-.311.458-.478.943-.478 1.445 0 2.793 5.174 5.057 11.557 5.057s11.558-2.264 11.558-5.057c0-.502-.168-.987-.479-1.445z" fill="#FFAABD" fill-opacity=".79"/></svg>
